Costumes/keyboard-c.svg

<svg version="1.1" width="229" height="63" viewBox="-1 -1 229 63" xmlns="http://www.w3.org/2000/svg" xmlns:xlink="http://www.w3.org/1999/xlink">
  <!-- Exported by Scratch - http://scratch.mit.edu/ -->
  <g id="ID0.16787050105631351" transform="matrix(0.7737809419631958, 0, 0, 0.7737809419631958, 0.65, 0)">
    <g id="ID0.43104934599250555">
      <g id="ID0.7900916617363691">
        <path id="ID0.8114587897434831" fill="#FFFFFF" stroke="#010101" d="M 126.800 149.900 L 143 149.900 L 143 210.100 L 126.800 210.100 L 126.800 149.900 Z " transform="matrix(1, 0, 0, 1, -126, -149)"/>
        <path id="ID0.46980072651058435" fill="#FFFFFF" stroke="#010101" d="M 143 149.900 L 159.200 149.900 L 159.200 210.100 L 143 210.100 L 143 149.900 Z " transform="matrix(1, 0, 0, 1, -126, -149)"/>
        <path id="ID0.20858941739425063" fill="#FFFFFF" stroke="#010101" d="M 159.100 149.900 L 175.300 149.900 L 175.300 210.100 L 159.100 210.100 L 159.100 149.900 Z " transform="matrix(1, 0, 0, 1, -126, -149)"/>
        <path id="ID0.16320018516853452" fill="#FFFFFF" stroke="#010101" d="M 175.300 149.900 L 191.500 149.900 L 191.500 210.100 L 175.300 210.100 L 175.300 149.900 Z " transform="matrix(1, 0, 0, 1, -126, -149)"/>
        <path id="ID0.15105019183829427" fill="#FFFFFF" stroke="#010101" d="M 191.500 149.900 L 207.700 149.900 L 207.700 210.100 L 191.500 210.100 L 191.500 149.900 Z " transform="matrix(1, 0, 0, 1, -126, -149)"/>
        <path id="ID0.567800638731569" fill="#FFFFFF" stroke="#010101" d="M 207.700 149.900 L 223.900 149.900 L 223.900 210.100 L 207.700 210.100 L 207.700 149.900 Z " transform="matrix(1, 0, 0, 1, -126, -149)"/>
        <path id="ID0.9613261804915965" fill="#FFFFFF" stroke="#010101" d="M 223.800 149.900 L 240 149.900 L 240 210.100 L 223.800 210.100 L 223.800 149.900 Z " transform="matrix(1, 0, 0, 1, -126, -149)"/>
        <path id="ID0.0464581367559731" fill="#FFFFFF" stroke="#010101" d="M 240 149.900 L 256.200 149.900 L 256.200 210.100 L 240 210.100 L 240 149.900 Z " transform="matrix(1, 0, 0, 1, -126, -149)"/>
        <path id="ID0.6082547027617693" fill="#FFFFFF" stroke="#010101" d="M 256.200 149.900 L 272.400 149.900 L 272.400 210.100 L 256.200 210.100 L 256.200 149.900 Z " transform="matrix(1, 0, 0, 1, -126, -149)"/>
        <path id="ID0.5232797577045858" fill="#FBD43F" stroke="#010101" d="M 272.300 149.900 L 288.500 149.900 L 288.500 210.100 L 272.300 210.100 L 272.300 149.900 Z " transform="matrix(1, 0, 0, 1, -126, -149)"/>
        <path id="ID0.32484686467796564" fill="#FFFFFF" stroke="#010101" d="M 288.500 149.900 L 304.700 149.900 L 304.700 210.100 L 288.500 210.100 L 288.500 149.900 Z " transform="matrix(1, 0, 0, 1, -126, -149)"/>
        <path id="ID0.8162111486308277" fill="#FFFFFF" stroke="#010101" d="M 304.700 149.900 L 320.900 149.900 L 320.900 210.100 L 304.700 210.100 L 304.700 149.900 Z " transform="matrix(1, 0, 0, 1, -126, -149)"/>
        <path id="ID0.16932364366948605" fill="#FFFFFF" stroke="#010101" d="M 320.900 149.900 L 337.100 149.900 L 337.100 210.100 L 320.900 210.100 L 320.900 149.900 Z " transform="matrix(1, 0, 0, 1, -126, -149)"/>
        <path id="ID0.4926524441689253" fill="#FFFFFF" stroke="#010101" d="M 337 149.900 L 353.200 149.900 L 353.200 210.100 L 337 210.100 L 337 149.900 Z " transform="matrix(1, 0, 0, 1, -126, -149)"/>
      </g>
      <g id="ID0.860373720061034">
        <path id="ID0.7259815195575356" fill="#010101" d="M 138.800 149.900 L 147.100 149.900 L 147.100 190.300 L 138.800 190.300 L 138.800 149.900 Z " transform="matrix(1, 0, 0, 1, -126, -149)"/>
        <path id="ID0.023649102076888084" fill="#010101" d="M 155 149.900 L 163.300 149.900 L 163.300 190.300 L 155 190.300 L 155 149.900 Z " transform="matrix(1, 0, 0, 1, -126, -149)"/>
        <path id="ID0.44002401316538453" fill="#010101" d="M 187.300 149.900 L 195.600 149.900 L 195.600 190.300 L 187.300 190.300 L 187.300 149.900 Z " transform="matrix(1, 0, 0, 1, -126, -149)"/>
        <path id="ID0.7576319496147335" fill="#010101" d="M 203.300 149.900 L 211.600 149.900 L 211.600 190.300 L 203.300 190.300 L 203.300 149.900 Z " transform="matrix(1, 0, 0, 1, -126, -149)"/>
        <path id="ID0.8615642078220844" fill="#010101" d="M 219.700 149.900 L 228 149.900 L 228 190.300 L 219.700 190.300 L 219.700 149.900 Z " transform="matrix(1, 0, 0, 1, -126, -149)"/>
        <path id="ID0.03337179543450475" fill="#010101" d="M 252 149.900 L 260.300 149.900 L 260.300 190.300 L 252 190.300 L 252 149.900 Z " transform="matrix(1, 0, 0, 1, -126, -149)"/>
        <path id="ID0.07775716530159116" fill="#010101" d="M 268.200 149.900 L 276.500 149.900 L 276.500 190.300 L 268.200 190.300 L 268.200 149.900 Z " transform="matrix(1, 0, 0, 1, -126, -149)"/>
        <path id="ID0.9087489941157401" fill="#010101" d="M 300.500 149.900 L 308.800 149.900 L 308.800 190.300 L 300.500 190.300 L 300.500 149.900 Z " transform="matrix(1, 0, 0, 1, -126, -149)"/>
        <path id="ID0.5818645157851279" fill="#010101" d="M 316.700 149.900 L 325 149.900 L 325 190.300 L 316.700 190.300 L 316.700 149.900 Z " transform="matrix(1, 0, 0, 1, -126, -149)"/>
        <path id="ID0.5238553006201982" fill="#010101" d="M 332.900 149.900 L 341.200 149.900 L 341.200 190.300 L 332.900 190.300 L 332.900 149.900 Z " transform="matrix(1, 0, 0, 1, -126, -149)"/>
      </g>
    </g>
  </g>
</svg>

<?xml version="1.0" encoding="UTF-8" standalone="no"?>
<svg
   version="1.1"
   width="175.95778"
   height="47.355392"
   viewBox="-1 -1 175.95778 47.355392"
   id="svg30"
   sodipodi:docname="keyboard-c.svg"
   xmlns:inkscape="http://www.inkscape.org/namespaces/inkscape"
   xmlns:sodipodi="http://sodipodi.sourceforge.net/DTD/sodipodi-0.dtd"
   xmlns="http://www.w3.org/2000/svg"
   xmlns:svg="http://www.w3.org/2000/svg">
  <defs
     id="defs34" />
  <sodipodi:namedview
     id="namedview32"
     pagecolor="#ffffff"
     bordercolor="#000000"
     borderopacity="0.25"
     inkscape:showpageshadow="2"
     inkscape:pageopacity="0.0"
     inkscape:pagecheckerboard="0"
     inkscape:deskcolor="#d1d1d1" />
  <!-- Exported by Scratch - http://scratch.mit.edu/ -->
  <g
     id="ID0.16787050105631351"
     transform="matrix(0.77378094,0,0,0.77378094,-1.2321343,-1.3095124)">
    <g
       id="ID0.43104934599250555">
      <g
         id="ID0.7900916617363691">
        <path
           id="ID0.8114587897434831"
           fill="#ffffff"
           stroke="#010101"
           d="M 126.8,149.9 H 143 v 60.2 h -16.2 z"
           transform="translate(-126,-149)" />
        <path
           id="ID0.46980072651058435"
           fill="#ffffff"
           stroke="#010101"
           d="m 143,149.9 h 16.2 v 60.2 H 143 Z"
           transform="translate(-126,-149)" />
        <path
           id="ID0.20858941739425063"
           fill="#ffffff"
           stroke="#010101"
           d="m 159.1,149.9 h 16.2 v 60.2 h -16.2 z"
           transform="translate(-126,-149)" />
        <path
           id="ID0.16320018516853452"
           fill="#ffffff"
           stroke="#010101"
           d="m 175.3,149.9 h 16.2 v 60.2 h -16.2 z"
           transform="translate(-126,-149)" />
        <path
           id="ID0.15105019183829427"
           fill="#ffffff"
           stroke="#010101"
           d="m 191.5,149.9 h 16.2 v 60.2 h -16.2 z"
           transform="translate(-126,-149)" />
        <path
           id="ID0.567800638731569"
           fill="#ffffff"
           stroke="#010101"
           d="m 207.7,149.9 h 16.2 v 60.2 h -16.2 z"
           transform="translate(-126,-149)" />
        <path
           id="ID0.9613261804915965"
           fill="#ffffff"
           stroke="#010101"
           d="M 223.8,149.9 H 240 v 60.2 h -16.2 z"
           transform="translate(-126,-149)" />
        <path
           id="ID0.0464581367559731"
           fill="#ffffff"
           stroke="#010101"
           d="m 240,149.9 h 16.2 v 60.2 H 240 Z"
           transform="translate(-126,-149)" />
        <path
           id="ID0.6082547027617693"
           fill="#ffffff"
           stroke="#010101"
           d="m 256.2,149.9 h 16.2 v 60.2 h -16.2 z"
           transform="translate(-126,-149)" />
        <path
           id="ID0.5232797577045858"
           fill="#fbd43f"
           stroke="#010101"
           d="m 272.3,149.9 h 16.2 v 60.2 h -16.2 z"
           transform="translate(-126,-149)" />
        <path
           id="ID0.32484686467796564"
           fill="#ffffff"
           stroke="#010101"
           d="m 288.5,149.9 h 16.2 v 60.2 h -16.2 z"
           transform="translate(-126,-149)" />
        <path
           id="ID0.8162111486308277"
           fill="#ffffff"
           stroke="#010101"
           d="m 304.7,149.9 h 16.2 v 60.2 h -16.2 z"
           transform="translate(-126,-149)" />
        <path
           id="ID0.16932364366948605"
           fill="#ffffff"
           stroke="#010101"
           d="m 320.9,149.9 h 16.2 v 60.2 h -16.2 z"
           transform="translate(-126,-149)" />
        <path
           id="ID0.4926524441689253"
           fill="#ffffff"
           stroke="#010101"
           d="m 337,149.9 h 16.2 v 60.2 H 337 Z"
           transform="translate(-126,-149)" />
      </g>
      <g
         id="ID0.860373720061034">
        <path
           id="ID0.7259815195575356"
           fill="#010101"
           d="m 138.8,149.9 h 8.3 v 40.4 h -8.3 z"
           transform="translate(-126,-149)" />
        <path
           id="ID0.023649102076888084"
           fill="#010101"
           d="m 155,149.9 h 8.3 v 40.4 H 155 Z"
           transform="translate(-126,-149)" />
        <path
           id="ID0.44002401316538453"
           fill="#010101"
           d="m 187.3,149.9 h 8.3 v 40.4 h -8.3 z"
           transform="translate(-126,-149)" />
        <path
           id="ID0.7576319496147335"
           fill="#010101"
           d="m 203.3,149.9 h 8.3 v 40.4 h -8.3 z"
           transform="translate(-126,-149)" />
        <path
           id="ID0.8615642078220844"
           fill="#010101"
           d="m 219.7,149.9 h 8.3 v 40.4 h -8.3 z"
           transform="translate(-126,-149)" />
        <path
           id="ID0.03337179543450475"
           fill="#010101"
           d="m 252,149.9 h 8.3 v 40.4 H 252 Z"
           transform="translate(-126,-149)" />
        <path
           id="ID0.07775716530159116"
           fill="#010101"
           d="m 268.2,149.9 h 8.3 v 40.4 h -8.3 z"
           transform="translate(-126,-149)" />
        <path
           id="ID0.9087489941157401"
           fill="#010101"
           d="m 300.5,149.9 h 8.3 v 40.4 h -8.3 z"
           transform="translate(-126,-149)" />
        <path
           id="ID0.5818645157851279"
           fill="#010101"
           d="m 316.7,149.9 h 8.3 v 40.4 h -8.3 z"
           transform="translate(-126,-149)" />
        <path
           id="ID0.5238553006201982"
           fill="#010101"
           d="m 332.9,149.9 h 8.3 v 40.4 h -8.3 z"
           transform="translate(-126,-149)" />
      </g>
    </g>
  </g>
</svg>
